shield-crown.svg

<svg fill="currentColor" viewBox="0 0 24 24"><path d="m12 1 9 4v6c0 5.55-3.84 10.74-9 12-5.16-1.26-9-6.45-9-12V5zm4 13H8v1.5c0 .27.19.46.47.5h6.96c.31 0 .52-.16.57-.41V14m1-6-2.67 2.67L12 8.34l-2.33 2.33L7 8l1 5h8z"/></svg>

<svg  viewBox="0 0 24 24" fill="currentColor"><path  d="M12 1L21 5V11C21 16.55 17.16 21.74 12 23C6.84 21.74 3 16.55 3 11V5L12 1M16 14H8V15.5C8 15.77 8.19 15.96 8.47 16L8.57 16H15.43C15.74 16 15.95 15.84 16 15.59L16 15.5V14M17 8L17 8L14.33 10.67L12 8.34L9.67 10.67L7 8L7 8L8 13H16L17 8Z"/></svg>
